X: 1396
T: Dreams of Golden Days
C:Arthur Bowley, (1913-2006) Marshall Mount, NSW
B: australian traditional tunes wiki
M:3/4
L:1/8
R: Waltz
Q: 1/4=100
K:C
V:1 
S"C"G2A2B2|c2d2^d2|e2z2^d2|e6|G2A2B2|c2d2e2|"G7"f6-|f6|
f2d2B2|A2G2A2|B6|A6|G2A2B2|c2d2^d2|"C"e6-|e6|
"C"G2A2B2|c2d2^d2|e2z2^d2|e6|g2e2c2|e2f2g2|"F"a6-|a6|
"F"a2f2d2|a2f2d2|"C"g4e2|"A7"G3^F G^G|"D7"A3^G A^A|"G7"B4G2|"C"c6-|c6"Fine"||
"C"g6|e6|g2^f2g2|e6|g2^f2g2|a2g3^f|"G7"f6-|f6|
"G7"f6|d6|f2e2f2|d6|f2g2a2|b2a3^g|"C"g6-|g6|
g6|e4g2|g2^f2g2|e4d2|"C"c2d2e2|f2g2^g2|"F"a6-|a6|
"F"a2^g2a2|f4a^g|"C"g2^f2g2|"A7"e4g2|"Dm7"b2a2g2|"G7"f2A2B2|"C"c6-|"d.c al fino"c6||
% abcbook-tune_id 6342d53acf2650d2d4ad23e6


% abcbook-boost 0
% abcbook-tablature 
% abcbook-transpose 
% abcbook-lastupdated 1665324362984
% abcbook-soundfonts 
% abcbook-repeats 1
% NFF Book 2015

